packages/clerk-js/src/ui/icons/clipboard.svg

<svg viewBox="0 0 12 16" fill="none" xmlns="http://www.w3.org/2000/svg">
  <path d="M4 1C4 0.447715 4.44772 0 5 0H7C7.55228 0 8 0.447715 8 1C8 1.55228 7.55228 2 7 2H5C4.44772 2 4 1.55228 4 1Z"
        fill="currentColor"/>
  <path
    d="M2 1C0.895431 1 0 1.89543 0 3V14C0 15.1046 0.895431 16 2 16H10C11.1046 16 12 15.1046 12 14V3C12 1.89543 11.1046 1 10 1C10 2.65685 8.65685 4 7 4H5C3.34315 4 2 2.65685 2 1Z"
    fill="currentColor"/>
</svg>

<svg xmlns="http://www.w3.org/2000/svg" fill="none" viewBox="0 0 12 16"><path fill="currentColor" d="M4 1c0-.6.4-1 1-1h2a1 1 0 0 1 0 2H5a1 1 0 0 1-1-1Z"/><path fill="currentColor" d="M2 1a2 2 0 0 0-2 2v11c0 1.1.9 2 2 2h8a2 2 0 0 0 2-2V3a2 2 0 0 0-2-2 3 3 0 0 1-3 3H5a3 3 0 0 1-3-3Z"/></svg>
